X:1
T:James Gibb editions
T:O love, how deep, how broad, how high - Barnby
%%score [ ( 1 2 ) ( 3 4 ) ]
L:1/8
Q:1/4=72
M:4/4
K:D
V:1 treble nm="Midi_74"
V:2 treble 
V:3 bass nm="Midi_74"
V:4 bass 
V:1
"^Benjamin Webb\n(1819-85)""^O love, how deep, how broad, how high""^L.M.""^Joseph Barnby\n(1838-96)" A2 | %1
 B2 A2 F2"^1" A2 | B2 c2 A2 || d2 | c2 B2 A2 ^GF | F2 ^E2 F2 ||[M:4/4] F2 | B2 A2 F2 A2 | %8
 B2 c2 d2 ||"^1" d2 | A2 B2 A2 D2 | E2 E2 D2 || D2- | D4 D4 |] %14
V:2
 D2 | D2 E2 F2 E2 | D2 E2 D2 || F2 | ^E2 C2 C2 C2 | D2 C2 C2 ||[M:4/4] C2 | D2 E2 F2 E2 | %8
 D2 ^A,2 B,2 || G2 | F2 ED C2 D2 | D2 C2 D2 || (=C2 | B,4 A,4) |] %14
V:3
 F,2 | F,2 A,2 A,2 A,2 | F,2 G,2 F,2 || B,2 | ^G,2 G,2 F,2 A,2 | ^G,2 G,2 ^A,2 || %6
[M:4/4]"^1. O love, how deep, how broad, how high,\nIt fills the heart with ecstasy,\nThat God, the Son of God, should take\nOur mortal form for mortals’ sake!\n\n2. He sent no angel to our race\nOf higher or of lower place,\nBut wore the robe of human frame\nHimself, and to this lost world came.\n\n3. For us baptized, for us He bore\nHis holy fast and hungered sore,\nFor us temptation sharp He knew;\nFor us the tempter overthrew." ^A,2 | %7
 F,2 !courtesy!=A,2 A,2 A,2 | %8
 F,2"^7. To Him Whose boundless love has won\nSalvation for us through His Son,\nTo God the Father, glory be\nBoth now and through eternity." F,2 F,2 || %9
 B,2 | %10
 A,2"^4. For us He prayed; for us He taught;\nFor us His daily works He wrought;\nBy words and signs and actions thus\nStill seeking not Himself, but us.\n\n5. For us to wicked men betrayed,\nScourged, mocked, in purple robe arrayed,\nHe bore the shameful cross and death,\nFor us gave up His dying breath.\n\n6. For us He rose from death again;\nFor us He went on high to reign;\nFor us He sent His Spirit here,\nTo guide, to strengthen, and to cheer." G,F, E,2 D,2 | %11
 B,2 A,G, F,2 || (A,2- | A,2 G,2 F,4) |] %14
V:4
 D,2 | B,,2 C,2 D,2 C,2 | B,,2 A,,2 D,2 || B,,2 | C,2 ^E,2 F,2 A,,2 | B,,2 C,2 F,2 ||[M:4/4] F,2 | %7
 B,,2 C,2 D,2 C,2 | B,,2 F,,2 B,,2 || G,,2 | D,2 G,,2 A,,2 B,,2 | G,,2 A,,2 D,2 || (F,,2 | %13
 G,,4 D,4) |] %14

